X:72
T:Barley Raking. JaW.072
M:6/8
L:1/8
Q:3/8=120
C:”A reel or Jigg”
S:James Winder Ms, Lancashire, 1835-41
R:.Jig
O:England
A:Wyresdale,Lancashire
Z:vmp.Chris Partington, Aug 2004
K:D
” Brisk Prestissimo”D2F (ABA)|G2F E2F|D2 (cB2A)|B2cd2:|!
|:e|d2ef2d|g2fe2f|d2ef2e(|dcB) A2A|!
d2ef2d|g2f (efe)|d2AB2d|A2FD2:|

